X: 13332
T: Flat House, The
R: reel
M: 4/4
K: Dmajor
|:F2EF DEFA|dfed dBAd|BEED EFGA|B2eB dBAG|
F2EF DEFA|dfed dBAd|afec dBAF|DFAG FDDE:|
|:f2af defg|eABA efge|f2af defa|bgag fdde|
f2af defg|eABA eABA|GFGA Bged|1 cAGE EDag:|2 cAGE EDDE||

